X:072
T:Da Full Rigged Ship
S:Sessions etc
Z:Nigel Gatherer
M:6/8
L:1/8
K:Am
e2a aea|aea aba|e2^f g2g|gag ^f2d|
e2a aea|aea aba|g2e edB|A3 E3::efe edB|
A2B c3|B2G B2G|Bcd E3|efe edB|A2B c2d|
efe dBG|A3 A3::EGE EGE|EGE c3|
EGE E2D|E2FGEC|EGE EGE|EGEc2d|efe dBG|A3 A3:|
<end>
<start>
